icon-svg/homekit.svg

<svg version="1.1" viewBox="0 0 24 24" fill="#44739e"
    xmlns="http://www.w3.org/2000/svg"
    xmlns:svg="http://www.w3.org/2000/svg">
    <path d="M 11.970985,0.30200076 A 0.7165682,0.71657139 0 0 0 11.526737,0.45708123 C 8.0124129,3.2443132 4.4981804,6.0316 0.98385644,8.8188319 A 0.7165682,0.71657139 0 0 0 0.84518791,8.9648793 C 0.95583178,8.8092959 0.88158242,8.919364 0.7970992,8.9795096 0.71261599,9.0396552 0.59792078,9.1155651 0.48375918,9.1990907 0.42667837,9.2408535 0.36972408,9.2836592 0.30603445,9.3410671 0.24234482,9.3984756 0.16315441,9.438838 0.06533639,9.6607699 0.01642738,9.7717355 -0.03976827,9.9768792 0.03989262,10.209721 c 0.07966089,0.232843 0.27733754,0.384011 0.40493759,0.441324 0.25356547,0.113893 0.35290062,0.07879 0.46320383,0.07137 0.39871096,0.02123 0.73685296,-0.01892 0.92208216,3.91e-4 0.076889,0.008 0.086499,0.01608 0.096686,0.01985 0.032113,3.578454 0.00452,7.166523 0.014248,10.759328 a 0.7165682,0.71657139 0 0 0 0.014249,0.140068 c -3.713e-4,-0.0018 -0.027469,0.366646 -0.033204,0.764208 -0.00287,0.19878 -0.00902,0.430127 0.1373964,0.720698 0.1464146,0.29057 0.5647967,0.551451 0.9082154,0.558875 a 0.7165682,0.71657139 0 0 0 0.015521,1.17e-4 h 14.680801 a 0.7165682,0.71657139 0 0 0 0.02137,-3.91e-4 c 1.147213,-0.03416 2.389253,0.08383 3.685403,-0.06972 a 0.7165682,0.71657139 0 0 0 0.63215,-0.711529 c 4.7e-5,-0.497404 -1.6e-5,-0.995486 0,-1.493048 0.01591,-0.17099 0.01696,-0.34247 0,-0.514474 0,-0.0083 0,-0.01662 0,-0.02494 -0.0074,-2.132192 -0.0015,-4.268304 0,-6.406261 -3e-6,-0.664241 -3.7e-5,-1.328427 0,-1.99251 l -0.002,0.05407 c 0.05872,-0.776409 -0.03092,-1.389428 0.05343,-1.803463 0.04107,-0.0094 0.100558,-0.01245 0.215381,-0.01348 0.239418,-0.0022 0.601413,0.06488 1.055535,0.008 a 0.7165682,0.71657139 0 0 0 0.07188,-0.01272 c 0.08353,-0.01925 0.19649,-0.05082 0.329115,-0.160297 0.132625,-0.109476 0.256893,-0.332057 0.270595,-0.523762 C 24.024262,9.6380262 23.865274,9.5232723 23.795217,9.4411888 23.655103,9.2770224 23.558287,9.2210123 23.451471,9.1437502 23.344656,9.0664881 23.238415,8.9942069 23.159504,8.9367638 23.080593,8.8793208 23.017348,8.8039639 23.084445,8.8874029 a 0.7165682,0.71657139 0 0 0 -0.06437,-0.069971 C 22.668519,8.4828013 22.307333,8.2640585 22.045958,8.057805 21.815976,7.8763247 21.688477,7.7263913 21.612141,7.5599953 V 4.8018786 c 0.03017,-0.157125 0.04762,-0.3164859 0.02265,-0.4929752 C 21.603616,4.0886468 21.48872,3.8311521 21.291041,3.65983 20.947447,3.3620485 20.579774,3.3659691 20.255479,3.4196397 c -0.24751,-0.027789 -0.551521,0.01163 -0.779342,0.2291222 -0.294137,0.2808019 -0.289742,0.5729039 -0.291459,0.7477957 -0.0017,0.1748918 0.01777,0.3049172 0.02583,0.3980695 0.0081,0.093152 -0.0085,0.1520878 0.0126,0.06679 a 0.7165682,0.71657139 0 0 0 -0.0071,0.3124509 c 0.03365,0.1682927 -0.02189,0.4746795 -0.07353,0.5830466 -0.0033,-0.00151 -0.0052,-0.0025 -0.0089,-0.00433 C 16.894238,3.9869845 14.654911,2.2214137 12.415615,0.45580903 A 0.7165682,0.71657139 0 0 0 11.970985,0.30200076 Z M 11.92137,2.3597748 c 0.179047,-9.347e-4 0.367703,0.043045 0.536991,0.1240389 2.046746,1.5523587 4.052966,3.1907642 6.10256,4.789811 l -0.03689,-0.03066 c 0.497704,0.4449216 1.032904,0.7760037 1.411366,1.1154598 0.374404,0.3358156 0.574629,0.614024 0.614339,1.0248793 0.0069,0.5623819 0.0032,1.1267172 0.0067,1.6896012 -0.01153,0.256388 -0.01,0.496534 0.0028,0.716246 0.0038,0.890907 0.01131,1.781239 0.01069,2.673261 1.3e-5,2.138461 3.4e-5,4.276658 0,6.414403 -2e-6,0.150812 5e-6,0.301719 0,0.452519 -0.02522,0.172382 -0.07832,0.341017 -0.158387,0.467786 -0.135641,0.214748 -0.271696,0.31357 -0.522615,0.318049 -5.108048,0.01755 -10.2191776,0.0025 -15.3324157,0.0075 a 0.7165682,0.71657139 0 0 0 -0.1147514,0.0093 C 4.1826617,22.174256 3.8848486,22.100659 3.6840785,21.95729 3.4833083,21.81392 3.3791233,21.647648 3.3807888,21.394725 a 0.7165682,0.71657139 0 0 0 1.302e-4,-0.0081 C 3.365033,18.11633 3.378589,14.841989 3.374049,11.564523 l -0.00165,0.05012 C 3.4189842,10.936947 3.3449622,10.304285 3.367683,9.7789565 3.3897573,9.2685807 3.4786104,8.907433 3.7460318,8.5963249 6.2668915,6.538345 8.8614646,4.5467905 11.425852,2.5030239 11.552366,2.408471 11.730431,2.3607718 11.92137,2.3597748 Z m 0.05292,3.0879968 A 0.7165682,0.71657139 0 0 0 11.528772,5.6013255 C 10.214669,6.6361849 8.9004908,7.6711283 7.5863873,8.7059877 a 0.7165682,0.71657139 0 0 0 -0.047198,0.040583 C 7.2210034,9.045395 6.4911494,9.3355012 6.0235039,10.135171 a 0.7165682,0.71657139 0 0 0 -0.097958,0.355069 c -0.026113,2.818812 -0.00381,5.632633 -0.011195,8.438846 a 0.7165682,0.71657139 0 0 0 0.7164966,0.718408 H 17.313159 a 0.7165682,0.71657139 0 0 0 0.716496,-0.7165 v -3.428182 a 0.7165682,0.71657139 0 0 0 -1.3e-4,-0.01056 c -0.02484,-1.682551 0.05341,-3.414129 -0.0416,-5.165489 A 0.7165682,0.71657139 0 0 0 17.728143,9.8125428 C 17.505839,9.6293709 17.27851,9.4552823 17.054774,9.2744046 16.995806,9.2217686 16.936815,9.165907 16.878449,9.1185607 16.75352,9.0172183 16.63843,8.9348593 16.519946,8.8470744 15.879141,8.3352356 15.241777,7.8209158 14.59856,7.3177695 14.389016,7.1473689 14.174972,6.9810003 13.955468,6.8121999 13.442093,6.4102286 12.926055,6.0088013 12.418792,5.6041243 A 0.7165682,0.71657139 0 0 0 11.974293,5.4477716 Z m 0.01552,1.8898443 c 0.121147,5.86e-5 0.232049,0.023008 0.325043,0.059793 0.858104,0.5635466 1.67289,1.3108786 2.598446,2.0070135 l -0.0603,-0.050761 c 0.297389,0.2797691 0.591394,0.4863294 0.85631,0.6798606 0.118268,0.09462 0.237449,0.188855 0.355195,0.283827 0.2183,0.190198 0.368028,0.364643 0.438905,0.561928 0.06297,1.935368 0.0094,3.90057 0.02811,5.885425 a 0.7165682,0.71657139 0 0 0 0.0014,0.03702 c 0.02196,0.358408 0.0053,0.751323 -0.06883,0.974882 -0.06887,0.207717 -0.07807,0.248202 -0.270212,0.284208 -2.468247,0.05303 -4.956371,0.0078 -7.457442,0.02341 a 0.7165682,0.71657139 0 0 0 -0.041473,0.0014 c -0.3644733,0.02343 -0.7647878,0.0049 -0.9851828,-0.07112 -0.2109541,-0.07275 -0.2439977,-0.06842 -0.2742833,-0.296676 -0.051405,-1.595585 -0.00806,-3.219025 -0.023027,-4.86258 l -0.00216,0.06259 C 7.4886096,11.920617 7.3333012,11.150028 7.5390634,10.6541 8.3335362,9.8938596 9.3283298,9.2419283 10.29297,8.4476069 l -0.06844,0.049743 c 0.436691,-0.2803459 0.76006,-0.6052355 1.047898,-0.826036 0.283333,-0.2173456 0.490917,-0.321679 0.717387,-0.3336967 z M 0.8409897,9.2830553 c 0.004653,1.303e-4 0.0245896,0.00894 0.0307869,0.0098 a 0.7165682,0.71657139 0 0 0 -0.052923,-6.514e-4 c -0.007463,4.56e-4 -0.006743,-0.010131 0.0221361,-0.00916 z M 11.972003,10.072452 a 0.7165682,0.71657139 0 0 0 -0.429873,0.143249 c -0.607937,0.455954 -1.215873,0.911909 -1.8238091,1.367863 a 0.7165682,0.71657139 0 0 0 -0.2866241,0.573251 v 3.19168 a 0.7165682,0.71657139 0 0 0 0.7293462,0.716373 c 1.215872,-0.02171 2.431745,-0.04342 3.647619,-0.06514 a 0.7165682,0.71657139 0 0 0 0.703647,-0.716373 v -3.12654 A 0.7165682,0.71657139 0 0 0 14.225685,11.583564 C 13.617748,11.12761 13.009812,10.671655 12.401875,10.215701 A 0.7165682,0.71657139 0 0 0 11.972003,10.072452 Z M 1.2949065,10.38274 c -0.019872,0.0226 -0.030006,0.02333 -0.029387,0.02277 5.406e-4,-4.56e-4 0.019705,-0.01507 0.029387,-0.02277 z m 10.6787505,1.44623 c 0.353169,0.165888 0.668832,0.433888 0.976786,0.782145 0.106981,0.484471 0.04471,1.1194 0.04745,1.859948 -0.0059,-0.002 -0.0216,-0.01206 -0.08778,0.0051 -0.141391,0.03663 -0.442474,0.03692 -0.747792,0.02595 l 0.01946,0.001 c -0.454607,-0.02875 -0.855292,0.02186 -1.07767,-0.0076 -0.111189,-0.01475 -0.155857,-0.04108 -0.156734,-0.04173 -6.5e-5,-6.5e-5 -0.0019,-0.0065 -0.0019,-0.0061 -0.0041,-0.705068 -0.05199,-1.323163 0.04478,-1.810205 0.345935,-0.348362 0.68199,-0.65439 0.983402,-0.808479 z m 1.036706,2.569578 c -0.01256,0.06292 -0.0024,0.07306 -0.0067,0.07213 z"></path>
</svg>

<svg xmlns="http://www.w3.org/2000/svg" fill="#44739e" viewBox="0 0 24 24"><path d="M11.971.302a.717.717 0 0 0-.4443.155L.984 8.8189a.72.72 0 0 0-.1387.146c.1106-.1555.0364-.0454-.0481.0147s-.1992.136-.3133.2196a2.1 2.1 0 0 0-.1778.142c-.0637.0574-.1428.0977-.2407.3197-.0489.111-.105.316-.0254.549.0797.2328.2773.384.405.4412.2535.114.3528.0788.4631.0714.3987.0212.7369-.019.9221.0004.077.008.0865.016.0967.0199.0321 3.5784.0045 7.1665.0143 10.7593a.7.7 0 0 0 .0142.14 14 14 0 0 0-.0332.7643c-.0029.1987-.009.43.1374.7207.1464.2905.5648.5514.9082.5588l.0155.0001H17.664l.0214-.0003c1.1472-.0342 2.3893.0838 3.6854-.0698a.7166.7166 0 0 0 .6322-.7115v-1.493a2.7 2.7 0 0 0 0-.5145v-.025c-.0074-2.1321-.0015-4.2683 0-6.4062V12.473l-.002.054c.0587-.7764-.031-1.3894.0534-1.8034.041-.0094.1005-.0125.2154-.0135.2394-.0022.6014.0649 1.0555.008a.7.7 0 0 0 .0719-.0127c.0835-.0193.1965-.0508.329-.1603.1327-.1095.257-.332.2707-.5238.0274-.3834-.1316-.4981-.2017-.5802-.1401-.1642-.237-.2202-.3437-.2974-.1068-.0773-.213-.1496-.292-.207-.079-.0575-.1422-.1328-.075-.0494a.7.7 0 0 0-.0644-.07c-.3516-.3346-.7128-.5533-.9741-.7596-.23-.1815-.3575-.3314-.4339-.4978v-2.758c.0302-.1571.0477-.3165.0227-.493-.0312-.2203-.146-.4777-.3438-.649-.3436-.2979-.7112-.294-1.0355-.2403-.2475-.0277-.5515.0117-.7794.2292-.2941.2808-.2897.5729-.2914.7478-.0017.1748.0177.3049.0258.398s-.0085.1521.0126.0668a.72.72 0 0 0-.007.3125c.0336.1683-.022.4746-.0736.583l-.009-.0043L12.4157.4558A.717.717 0 0 0 11.971.302m-.0496 2.0578c.179-.001.3677.043.537.124 2.0467 1.5524 4.053 3.1908 6.1025 4.7898l-.0369-.0306c.4977.4449 1.033.776 1.4114 1.1154.3744.3358.5746.614.6143 1.0249.007.5624.0032 1.1267.0067 1.6896-.0115.2564-.01.4965.0028.7163.0038.8909.0113 1.7812.0107 2.6732v6.8669c-.0252.1724-.0783.341-.1584.4678-.1356.2148-.2717.3136-.5226.318-5.108.0176-10.2192.0026-15.3324.0076a.7.7 0 0 0-.1147.0093c-.2591.0423-.557-.0313-.7577-.1747-.2008-.1434-.305-.3097-.3033-.5626l.0001-.008c-.0159-3.2704-.0023-6.5447-.0069-9.8222l-.0016.0501c.0466-.6777-.0274-1.3103-.0047-1.8356.022-.5104.111-.8716.3783-1.1827 2.521-2.058 5.1155-4.0495 7.68-6.0933.1265-.0945.3045-.1422.4955-.1432m.0529 3.088a.717.717 0 0 0-.4455.1535L7.5864 8.706a.7.7 0 0 0-.0472.0406c-.3182.2988-1.048.5889-1.5157 1.3886a.717.717 0 0 0-.098.355c-.026 2.8189-.0038 5.6327-.0111 8.4389a.7166.7166 0 0 0 .7164.7184h10.6824a.7166.7166 0 0 0 .7165-.7165v-3.4282l-.0002-.0105c-.0248-1.6826.0534-3.4142-.0416-5.1655a.717.717 0 0 0-.2598-.5143c-.2223-.1831-.4496-.3572-.6733-.5381-.059-.0526-.118-.1085-.1764-.1558-.1249-.1014-.24-.1837-.3585-.2715-.6408-.5119-1.2781-1.0262-1.9213-1.5293a30 30 0 0 0-.6431-.5056c-.5134-.402-1.0294-.8034-1.5367-1.208a.717.717 0 0 0-.4445-.1564m.0155 1.8898c.1212 0 .232.023.325.0598.8582.5636 1.673 1.3109 2.5985 2.007l-.0603-.0507c.2974.2797.5914.4863.8563.6798.1183.0946.2375.1889.3552.2838.2183.1902.368.3647.439.562.0629 1.9353.0093 3.9005.028 5.8854a1 1 0 0 0 .0014.037c.022.3584.0053.7513-.0688.9749-.0689.2077-.078.2482-.2702.2842-2.4683.053-4.9564.0078-7.4575.0234a1 1 0 0 0-.0414.0014c-.3645.0235-.7648.005-.9852-.0711-.211-.0727-.244-.0684-.2743-.2967-.0514-1.5956-.008-3.219-.023-4.8626l-.0022.0626c.0783-.9972-.077-1.7678.1288-2.2637.7944-.7602 1.7892-1.4122 2.7539-2.2065l-.0685.0497c.4367-.2803.76-.6052 1.048-.826.2833-.2173.4908-.3217.7173-.3337M.841 9.2831c.0046 0 .0246.0089.0308.0098a.7.7 0 0 0-.053-.0007c-.0074.0005-.0067-.0101.0222-.0092zm11.131.7894a.717.717 0 0 0-.4299.1432l-1.8238 1.3679a.717.717 0 0 0-.2866.5732v3.1917a.7166.7166 0 0 0 .7293.7164l3.6477-.0652a.7166.7166 0 0 0 .7036-.7163v-3.1266a.717.717 0 0 0-.2866-.5732l-1.8238-1.3679a.717.717 0 0 0-.4299-.1432m-10.677.3102c-.02.0226-.0301.0234-.0295.0228zm10.6787 1.4463c.3531.1659.6688.4339.9767.7821.107.4845.0448 1.1194.0475 1.86-.006-.002-.0216-.0121-.0878.005-.1414.0367-.4425.037-.7478.026l.0195.001c-.4546-.0287-.8553.0219-1.0777-.0076-.1112-.0147-.1558-.041-.1567-.0417 0 0-.002-.0065-.002-.0061-.004-.705-.052-1.3232.0449-1.8102.3459-.3484.682-.6544.9834-.8085m1.0367 2.5695c-.0126.063-.0024.0731-.0067.0722z"/></svg>
